assets/img/braze_icons/type-strikethrough-02.svg

<svg fill="none" height="24" viewBox="0 0 24 24" width="24" xmlns="http://www.w3.org/2000/svg"><g fill="#801ed7"><path clip-rule="evenodd" d="m2.29289 2.29289c.39053-.39052 1.02369-.39052 1.41422 0l17.99999 18.00001c.3905.3905.3905 1.0237 0 1.4142s-1.0237.3905-1.4142 0l-5.5429-5.5429v2.8358h1.25c.5523 0 1 .4477 1 1s-.4477 1-1 1h-8c-.55228 0-1-.4477-1-1s.44772-1 1-1h1.25v-8.3358l-4.25-4.24999v.58574c0 .55228-.44772 1-1 1s-1-.44772-1-1v-1c0-.46271.10518-.90152.29254-1.29319l-.99965-.99965c-.39052-.39053-.39052-1.02369 0-1.41422z" fill-rule="evenodd"/><path d="m14.75 10.5074v-5.5074h2.25c.4796 0 .7893.00054 1.0262.01671.228.01556.3149.04217.3565.05941.245.1015.4397.29617.5412.5412.0172.04161.0438.12844.0594.35644.0162.23698.0167.54662.0167 1.02624 0 .55229.4477 1 1 1s1-.44771 1-1v-.03199c0-.43865 0-.81713-.0213-1.13039-.0225-.32983-.0721-.65974-.2071-.98567-.3044-.73508-.8885-1.31911-1.6235-1.62359-.326-.135-.6559-.1845-.9857-.20701-.3133-.02137-.6917-.02136-1.1304-.02135h-9.78936l2 2h.00736v.00736z"/></g></svg>

<svg width="24" height="24" viewBox="0 0 24 24" fill="none" xmlns="http://www.w3.org/2000/svg">
<path fill-rule="evenodd" clip-rule="evenodd" d="M2.29289 2.29289C2.68342 1.90237 3.31658 1.90237 3.70711 2.29289L21.7071 20.2929C22.0976 20.6834 22.0976 21.3166 21.7071 21.7071C21.3166 22.0976 20.6834 22.0976 20.2929 21.7071L14.75 16.1642V19H16C16.5523 19 17 19.4477 17 20C17 20.5523 16.5523 21 16 21H8C7.44772 21 7 20.5523 7 20C7 19.4477 7.44772 19 8 19H9.25V10.6642L5 6.41421V6.99995C5 7.55223 4.55228 7.99995 4 7.99995C3.44772 7.99995 3 7.55223 3 6.99995V5.99995C3 5.53724 3.10518 5.09843 3.29254 4.70676L2.29289 3.70711C1.90237 3.31658 1.90237 2.68342 2.29289 2.29289Z" fill="#801ED7"/>
<path d="M14.75 10.5074V5H17C17.4796 5 17.7893 5.00054 18.0262 5.01671C18.2542 5.03227 18.3411 5.05888 18.3827 5.07612C18.6277 5.17762 18.8224 5.37229 18.9239 5.61732C18.9411 5.65893 18.9677 5.74576 18.9833 5.97376C18.9995 6.21074 19 6.52038 19 7C19 7.55229 19.4477 8 20 8C20.5523 8 21 7.55229 21 7V6.96801C21 6.52936 21 6.15088 20.9787 5.83762C20.9562 5.50779 20.9066 5.17788 20.7716 4.85195C20.4672 4.11687 19.8831 3.53284 19.1481 3.22836C18.8221 3.09336 18.4922 3.04386 18.1624 3.02135C17.8491 2.99998 17.4707 2.99999 17.032 3H7.24264L9.24264 5H9.25V5.00736L14.75 10.5074Z" fill="#801ED7"/>
</svg>
